public/images/hero_area/logo.svg

<svg width="110" height="16" viewBox="0 0 110 16" fill="none" xmlns="http://www.w3.org/2000/svg">
<path d="M61.6617 15.3379H64.4829V9.24524H71.2662V6.79175H64.4829V2.99348H73.0858V0.545126H61.6617V15.3379Z" fill="white"/>
<path d="M79.4967 0.545126H76.6757V15.3379H85.6173V12.8895H79.4967V0.545126Z" fill="white"/>
<path d="M91.9166 0.545126H89.0956V15.3379H91.9166V0.545126Z" fill="white"/>
<path d="M104.765 8.06982H98.9274V2.99347H104.765C105.424 3.08442 106.026 3.39067 106.461 3.8565C106.896 4.32233 107.135 4.91677 107.135 5.53165C107.135 6.14652 106.896 6.74095 106.461 7.20678C106.026 7.67261 105.424 7.97887 104.765 8.06982ZM104.765 0.545126H96.1062V15.3379H98.9274V10.5182H104.765C106.168 10.4766 107.5 9.93305 108.477 9.00243C109.454 8.07181 110 6.82713 110 5.53165C110 4.23616 109.454 2.99148 108.477 2.06086C107.5 1.13024 106.168 0.586673 104.765 0.545126Z" fill="white"/>
<path d="M8.58701 13.3976C7.66113 13.3982 6.74864 13.1936 5.92631 12.8011C5.10399 12.4086 4.39589 11.8397 3.86158 11.1422C3.32727 10.4447 2.98239 9.63907 2.85593 8.79303C2.72947 7.94699 2.82515 7.08531 3.13492 6.28048C3.44468 5.47565 3.95946 4.75122 4.63596 4.16812C5.31246 3.58502 6.13089 3.16032 7.0224 2.92973C7.9139 2.69915 8.85241 2.66944 9.75895 2.84309C10.6655 3.01675 11.5136 3.38869 12.2318 3.92763L14.0125 1.91044C12.7509 0.966726 11.2253 0.371976 9.61235 0.195082C7.99941 0.0181878 6.36514 0.266376 4.89882 0.910915C3.4325 1.55545 2.19413 2.56997 1.32714 3.83695C0.460142 5.10393 0 6.57154 0 8.06981C0 9.56807 0.460142 11.0357 1.32714 12.3026C2.19413 13.5696 3.4325 14.5841 4.89882 15.2287C6.36514 15.8732 7.99941 16.1214 9.61235 15.9445C11.2253 15.7676 12.7509 15.1729 14.0125 14.2292L12.2318 12.2068C11.2008 12.9816 9.91129 13.404 8.58145 13.4028" fill="white"/>
<path d="M38.7579 0.545126H35.9369V15.3379H38.7579V0.545126Z" fill="white"/>
<path d="M54.3168 11.2316L45.7696 0.545126H42.9484V15.3379H45.7696V4.76943L54.3168 15.3379H57.1381V0.545126H54.3168V11.2316Z" fill="white"/>
<path d="M24.3732 2.60341C25.4688 2.60499 26.5413 2.89368 27.4659 3.43582C28.3905 3.97796 29.129 4.75126 29.5955 5.66563C30.062 6.58001 30.2372 7.59782 30.1008 8.60052C29.9644 9.60321 29.5219 10.5495 28.8249 11.3292H32.1637C32.9973 9.70404 33.2079 7.86595 32.761 6.11596C32.3141 4.36597 31.2362 2.80782 29.7039 1.69673C28.1715 0.585642 26.2755 -0.0125256 24.3264 0.000198894C22.3773 0.0129234 20.4907 0.635796 18.9756 1.76678L20.7507 3.78911C21.779 3.01771 23.0644 2.59712 24.3899 2.59829" fill="white"/>
<path d="M24.3742 13.2643C23.2776 13.2648 22.2036 12.9774 21.2776 12.4356C20.3517 11.8939 19.612 11.1202 19.1451 10.205C18.6782 9.28988 18.5034 8.27103 18.641 7.26759C18.7787 6.26416 19.2232 5.31759 19.9225 4.53855H16.5837C15.7525 6.16302 15.5433 7.99956 15.9905 9.74789C16.4377 11.4962 17.5148 13.0529 19.0456 14.1633C20.5764 15.2737 22.4703 15.8722 24.4177 15.8609C26.3651 15.8495 28.2508 15.2291 29.7663 14.101L27.9911 12.0786C26.9635 12.8471 25.6804 13.2658 24.3575 13.2643" fill="white"/>
</svg>

<svg xmlns="http://www.w3.org/2000/svg" width="110" height="16" fill="none"><path fill="#fff" d="M61.662 15.338h2.82V9.245h6.784V6.792h-6.783V2.993h8.603V.545H61.662v14.793ZM79.497.545h-2.821v14.793h8.941V12.89h-6.12V.544ZM91.917.545h-2.821v14.793h2.82V.545ZM104.765 8.07h-5.838V2.993h5.838c.659.091 1.261.398 1.696.864.435.465.674 1.06.674 1.675s-.239 1.209-.674 1.675a2.852 2.852 0 0 1-1.696.863Zm0-7.525h-8.659v14.793h2.821v-4.82h5.838c1.403-.041 2.735-.585 3.712-1.516.977-.93 1.523-2.175 1.523-3.47 0-1.296-.546-2.54-1.523-3.471-.977-.93-2.309-1.474-3.712-1.516ZM8.587 13.398a6.177 6.177 0 0 1-2.66-.597 5.67 5.67 0 0 1-2.065-1.659 5.103 5.103 0 0 1-1.006-2.349 4.944 4.944 0 0 1 .279-2.513c.31-.804.824-1.529 1.501-2.112A5.926 5.926 0 0 1 7.022 2.93c.892-.23 1.83-.26 2.737-.087a6.002 6.002 0 0 1 2.473 1.085l1.78-2.018a8.986 8.986 0 0 0-4.4-1.715A9.24 9.24 0 0 0 4.9.911c-1.466.644-2.705 1.659-3.572 2.926A7.485 7.485 0 0 0 0 8.07c0 1.498.46 2.966 1.327 4.233.867 1.267 2.106 2.281 3.572 2.926a9.24 9.24 0 0 0 4.713.716 8.986 8.986 0 0 0 4.4-1.716l-1.78-2.022a6.078 6.078 0 0 1-3.65 1.196M38.758.545h-2.821v14.793h2.82V.545ZM54.317 11.232 45.77.545h-2.822v14.793h2.822V4.769l8.547 10.569h2.821V.545h-2.821v10.687ZM24.373 2.603a6.143 6.143 0 0 1 3.093.833 5.496 5.496 0 0 1 2.13 2.23c.466.914.641 1.932.505 2.935a5.134 5.134 0 0 1-1.276 2.728h3.339a7.376 7.376 0 0 0 .597-5.213c-.447-1.75-1.525-3.308-3.057-4.42C28.172.587 26.276-.012 24.326 0c-1.949.013-3.835.636-5.35 1.767l1.775 2.022A6.067 6.067 0 0 1 24.39 2.6M24.374 13.264a6.137 6.137 0 0 1-3.096-.828 5.491 5.491 0 0 1-2.133-2.231 4.962 4.962 0 0 1-.504-2.937 5.132 5.132 0 0 1 1.282-2.73h-3.34a7.376 7.376 0 0 0-.592 5.21c.447 1.748 1.524 3.305 3.055 4.415 1.53 1.11 3.424 1.71 5.372 1.698 1.947-.011 3.833-.632 5.348-1.76l-1.775-2.022a6.067 6.067 0 0 1-3.633 1.185"/></svg>
